X: 1
T: Follow Me Down To Milltown
R: barndance
M: 4/4
L: 1/8
K: Dmaj
|:A2FA A2FA | B2GB B2GB |1 A2FA A2FA | EFGA BcdB :|2 AdcB AGFE | DDCE D2 |
|:Adfd Adfd | Acec Acec |1 Adfd Adfd | dABc d2cB :|2 d2cB AGFE | DDCE D2 |


Tune 252	Setting 12977

